packages/calcite-ui-icons/icons/coded-value-domain-32.svg

<?xml version="1.0" encoding="UTF-8"?><svg id="icons" xmlns="http://www.w3.org/2000/svg" viewBox="0 0 32 32"><defs><style>.cls-1{fill:none;}</style></defs><rect class="cls-1" width="32" height="32"/><path d="M6,28h-3.5c-.82843,0-1.5-.67157-1.5-1.5V6.5c0-.82843.67157-1.5,1.5-1.5h3.5v1h-3.5c-.27588,0-.5.22461-.5.5v20c0,.27539.22412.5.5.5h3.5v1ZM29.5,5h-3.5v1h3.5c.27588,0,.5.22461.5.5v20c0,.27539-.22412.5-.5.5h-3.5v1h3.5c.82843,0,1.5-.67157,1.5-1.5V6.5c0-.82843-.67157-1.5-1.5-1.5ZM27,10H5v1h22v-1ZM27,14H5v1h22v-1ZM27,18H5v1h22v-1ZM27,22H5v1h22v-1Z"/></svg>

<svg xmlns="http://www.w3.org/2000/svg" viewBox="0 0 32 32"><path d="M0 0h32v32H0z" style="fill:none"/><path d="M6 28H2.5A1.5 1.5 0 0 1 1 26.5v-20A1.5 1.5 0 0 1 2.5 5H6v1H2.5a.5.5 0 0 0-.5.5v20a.5.5 0 0 0 .5.5H6zM29.5 5H26v1h3.5a.5.5 0 0 1 .5.5v20a.5.5 0 0 1-.5.5H26v1h3.5a1.5 1.5 0 0 0 1.5-1.5v-20A1.5 1.5 0 0 0 29.5 5M27 10H5v1h22zm0 4H5v1h22zm0 4H5v1h22zm0 4H5v1h22z"/></svg>
